X:1
T:Title
%%score ( 1 2 ) 3
L:1/8
Q:1/4=90
M:6/8
K:Ab
V:1 treble nm="Grand Piano, Soprano"
V:2 treble 
V:3 bass nm="Choir Pad, La Purisima, 77.76 D"
V:1
 [Ec][DB][CA] [CE]2 [CA] | [EG]3 [DF]3 | [Fd][Ec][DB] [CA]2 [=DB] | [DB]3 E3 | %4
w: By~Minnie~B.~Enlow,~1920 * * * *||||
 [Ec][DB][CA] [CE]2 [CA] | [EG]3 [DF]3 | [CE][CE][CE] [DF]2 [DG] | [CA]3- [CA]3/2 z/ [Ec] | %8
w: ||||
 [Fd]2 [Fd] [Fd]2 [Fd] | [Fd]3 [Ec]2 [Ec] | [Ee][Ed][Ec] cB[=DA] | [DB]3- [DB]3/2 z/ E | %12
w: ||||
 [Ec]2 [DB] [CA]2 [CE] | [EG]3 [DF]2 [DF] | [CE]2 [CE] [DF]2 [DG] | [CA]6- | [CA]3 z3 |] %17
w: |||||
V:2
 x6 | x6 | x6 | x6 | x6 | x6 | x6 | x6 | x6 | x6 | z3 .=D3 | x6 | x6 | x6 | x6 | x6 | x6 |] %17
V:3
 [A,,A,]3 [A,,A,]3 | [D,A,]3 [D,A,]3 | [B,,B,]3 [F,A,]3 | [E,G,]6 | [A,,A,]3 [A,,A,]3 | %5
 [D,A,]3 [D,A,]3 | [E,A,]3 [E,G,]2 [E,B,] | [A,,E,A,]3- [A,,E,A,]3/2 z/ [A,,A,] | %8
 [D,A,]2 [D,A,] [D,A,]2 [D,A,] | [A,,A,]3 [A,,A,]2 A, | [A,C][A,B,]A, [B,,A,]2 [B,,F,] | %11
 [E,G,]3- [E,G,]3/2 z/ [E,G,] | [A,,A,]2 [E,G,] [F,A,]2 A, | [D,A,]3 [D,A,]2 [D,A,] | %14
 [E,A,]2 [E,A,] [E,G,]2 [E,B,] | [A,,A,]6- | [A,,A,]3 z3 |] %17

